X: 1824
T: Söğüdün Yaprağı Narindir
C: (Anonim)
O: Turkey
F: http://compmusic.upf.edu/node/140
N: muhayyer--turku--raksan--sogudun_yapragi--
N: makam= muhayyer
N: form= turku
N: usul= raksan = 15/8
M: 15/8
L: 1/16
K: C _2/4B ^3/4f  
Q: 1/4=144
%%MIDI tuningsystem comma53
c2d2 d2d3cde c2BA ABcd cBBA BAA4 | 
w:  ARANAĞME  | 
c2 d2d2 d3c dec2 BAAB cdcB BABA A4  | 
w:  ARANAĞME  | 
f2g2 a2a4c'_1/4b a3g f2g2 f4 gfe3d | \
w:  Sö ğü dün  yap ra *  ğı  *  na rin dir  na *  rin    | 
d2 fga2 a4 c'_1/4ba3gf2 g2f4gf e3z  | 
w:  Sö ğü *  dün  yap ra *  ğı  *  na rin dir  na *  rin    | 
d2d2 d2d3{e}cde c2BA ABcd cBBA BAA4 | 
w:  İ çe rim  ya *  *  nı *  yor  *  *  dı *  şa *  rım  *  *  *  se *  rin    | 
d2 d2d2 d3{e}c dec2 BAAB cdcB BABA A4  | 
w:  İ çe rim  ya *  *  nı *  yor  *  *  dı *  şa *  rım  *  *  *  se *  rin    | 
f2g2 a2a4c'_1/4b a3g f2g2 f4 gfe3d | \
w:  Zey ne bi  bu  haf *  ta  *  et ti ler  ge *  lin    | 
d2 fga2 a4 c'_1/4ba3gf2 g2f4gf e3z  | 
w:  Zey ne *  bi  bu  haf *  ta  *  et ti ler  ge *  lin    | 
c2d2 d2d3{e}cde ccBA ABcd cBBA BAA4 | 
w:  Zey ne bim  Zey *  *  ne *  bim  *  *  *  an *  lı  *  Zey *  *  *  ne *  bim    | 
c2 d2d2 d3{e}c decc BAAB cdcB BABA A4  | 
w:  Üç  kö yün  i *  *  çin *  de  *  *  *  şan *  lı  *  Zey *  *  *  ne *  bim    | 
c2d2 d2d3{e}cde ccBA ABcd cBBA BAA4 | 
w:  Zey ne bim  Zey *  *  ne *  bim  *  *  *  an *  lı  *  Zey *  *  *  ne *  bim    | 
c2 d2d2 d3{e}c decc BAAB cdcB BABA A4  | 
w:  Üç  kö yün  i *  *  çin *  de  *  *  *  şan *  lı  *  Zey *  *  *  ne *  bim    | 
c2d2 d2d3cde c2BA ABcd cBBA BAA4 | 
w:  ARANAĞME  | 
c2 d2d2 d3c dec2 BAAB cdcB BABA A4  | 
w:  ARANAĞME  | 
f2g2 a2a4c'_1/4b a3g f2g2 f4 gfe3d | \
w:  Sö ğü dün  yap ra *  ğı  *  na rin dir  na *  rin    | 
d2 fga2 a4 c'_1/4ba3gf2 g2f4gf e3z  | 
w:  Sö ğü *  dün  yap ra *  ğı  *  na rin dir  na *  rin    | 
d2d2 d2d3{e}cde c2BA ABcd cBBA BAA4 | 
w:  İ çe rim  ya *  *  nı *  yor  *  *  dı *  şa *  rım  *  *  *  se *  rin    | 
d2 d2d2 d3{e}c dec2 BAAB cdcB BABA A4  | 
w:  İ çe rim  ya *  *  nı *  yor  *  *  dı *  şa *  rım  *  *  *  se *  rin    | 
f2g2 a2a4c'_1/4b a3g f2g2 f4 gfe3d | \
w:  Zey ne bi  bu  haf *  ta  *  et ti ler  ge *  lin    | 
d2 fga2 a4 c'_1/4ba3gf2 g2f4gf e3z  | 
w:  Zey ne *  bi  bu  haf *  ta  *  et ti ler  ge *  lin    | 
c2d2 d2d3{e}cde ccBA ABcd cBBA BAA4 | 
w:  Zey ne bim  Zey *  *  ne *  bim  *  *  *  an *  lı  *  Zey *  *  *  ne *  bim    | 
c2 d2d2 d3{e}c decc BAAB cdcB BABA A4  | 
w:  Üç  kö yün  i *  *  çin *  de  *  *  *  şan *  lı  *  Zey *  *  *  ne *  bim    | 
c2d2 d2d3{e}cde ccBA ABcd cBBA BAA4 | 
w:  Zey ne bim  Zey *  *  ne *  bim  *  *  *  an *  lı  *  Zey *  *  *  ne *  bim    | 
c2 d2d2 d3{e}c decc BAAB cdcB BABA A4  | 
w:  Üç  kö yün  i *  *  çin *  de  *  *  *  şan *  lı  *  Zey *  *  *  ne *  bim    | 
|


